public/feature02.svg

<svg width="61" height="61" viewBox="0 0 61 61" fill="none" xmlns="http://www.w3.org/2000/svg">
<g clip-path="url(#clip0_6511_1817)">
<g clip-path="url(#clip1_6511_1817)">
<g clip-path="url(#clip2_6511_1817)">
<mask id="mask0_6511_1817" style="mask-type:luminance" maskUnits="userSpaceOnUse" x="0" y="0" width="60" height="61">
<path d="M59.9691 0.919922H0.664062V60.225H59.9691V0.919922Z" fill="white"/>
</mask>
<g mask="url(#mask0_6511_1817)">
<path d="M38.6445 29.2056L41.6445 24.4914L45.9302 22.3485C46.5017 22.2056 47.7302 22.0056 48.0731 22.3485C48.416 22.6914 53.3588 29.3485 55.7874 32.6342L57.9302 36.4914C57.5017 37.3485 56.5588 39.1485 56.216 39.4914C55.8731 39.8342 52.6445 41.3485 51.0731 42.0628C50.216 42.2057 48.416 42.4914 48.0731 42.4914C47.7302 42.4914 43.6445 37.0628 41.6445 34.3485L39.3945 30.4914L38.6445 29.2056Z" fill="#FDC040"/>
<path d="M48.0703 42.4912C47.7275 42.4912 43.6417 37.0627 41.6417 34.3484L39.3917 30.4912H37.7846H33.4989C33.0703 30.4912 30.9275 31.3484 30.0703 31.7769L27.4989 33.0626C26.6417 33.4912 25.7846 34.3484 25.356 34.7769C24.9275 35.2055 24.0703 36.4912 24.0703 36.9198C24.0703 37.3484 24.0703 38.2055 24.4989 38.6341C24.9275 39.0626 25.7846 39.4912 26.2132 39.4912H28.7846C29.4703 39.4912 31.356 38.6341 32.2132 38.2055C32.4989 38.3484 33.156 38.7198 33.4989 39.0626C33.8417 39.4055 36.7846 41.4912 38.2132 42.4912L41.6417 45.9198C42.2132 46.2055 43.4417 46.6912 43.7846 46.3484C44.1275 46.0055 45.356 45.0626 45.9275 44.6341L47.2132 43.7769L48.0703 42.4912Z" fill="#FDC040"/>
<path d="M13.7852 47.2058C13.7852 47.8915 14.928 49.2058 15.4994 49.7772L18.4994 52.3487L20.2137 53.6344L21.928 55.3487C22.4995 55.6344 23.6423 56.2915 23.6423 56.6344C23.6423 56.9772 25.3566 57.3486 26.2137 57.4915C26.6423 57.2058 27.5852 56.5487 27.928 56.2058C28.3566 55.7772 28.3566 55.7772 28.3566 54.9201C28.3566 54.063 28.3566 53.2058 27.928 52.3487C27.4994 51.4915 27.4994 49.7772 27.0709 49.3487C26.6423 48.9201 24.928 48.063 24.928 47.6344C24.928 47.2058 23.6423 45.4915 23.2137 45.063C22.7852 44.6344 21.928 42.9201 21.4994 42.4915C21.0709 42.063 19.7852 41.2058 18.928 41.6344C18.0709 42.063 15.4994 44.2058 15.0709 44.6344C14.728 44.9772 14.0708 46.4916 13.7852 47.2058Z" fill="#FDC040"/>
<path d="M21.9275 5.20557C24.4989 8.777 31.8703 15.7484 40.7846 15.0627L39.0703 20.2056L36.4989 22.3484L28.356 24.9199L21.9275 22.777L18.0703 15.9199L18.4989 10.3484L20.6417 6.49128L21.9275 5.20557Z" fill="#FDC040"/>
<path d="M29.3569 16.3267C28.9044 16.3267 28.3496 16.2606 27.9697 15.8372C27.8376 15.6885 27.7219 15.5496 27.6097 15.4338C26.7047 14.4814 25.1458 15.8042 26.0904 17.0408L26.3183 17.3351C26.4669 17.5205 26.7345 17.7353 27.1175 17.9801C27.4908 18.2179 27.9069 18.39 28.3693 18.4925V20.1262C28.3693 20.6883 28.8282 21.1513 29.3899 21.1513C29.9547 21.1513 30.4335 20.6883 30.4335 20.1262V18.4826C31.1734 18.3109 31.8075 17.9503 32.326 17.4048C32.8476 16.8589 33.1086 16.1349 33.1086 15.2321C33.1086 14.6171 32.9899 14.1046 32.752 13.6911C32.5142 13.2811 32.2235 12.9935 31.8767 12.8313C31.5267 12.6692 31.1469 12.527 30.7274 12.4048C30.3113 12.2825 29.9315 12.1964 29.5814 12.1436C29.2347 12.0938 28.944 11.988 28.7062 11.8327C28.4683 11.6738 28.3495 11.4689 28.3495 11.2142C28.3495 9.99742 30.133 10.1461 30.9189 10.8075C32.0782 11.783 33.376 9.99742 32.0319 8.98886L31.8766 8.84986C31.7709 8.76739 31.586 8.66476 31.3185 8.53573C31.0542 8.40693 30.7569 8.3109 30.4334 8.2414V7.25279V6.82295C30.4334 6.26071 29.9742 5.79785 29.4095 5.79785C28.848 5.79785 28.3858 6.2606 28.3858 6.82295V8.22495C27.6326 8.3738 27.0084 8.74758 26.5759 9.29963C26.14 9.86191 25.9186 10.4837 25.9186 11.1778C25.9186 11.8757 26.0806 12.4477 26.4041 12.9008C26.7278 13.3536 27.1209 13.6711 27.5866 13.8564C28.0489 14.0416 28.5112 14.1905 28.9736 14.2994C29.4392 14.4121 29.8324 14.5342 30.1558 14.6765C30.4796 14.8153 30.6414 15.0105 30.6414 15.2651C30.6415 15.9727 30.2122 16.3267 29.3569 16.3267Z" fill="#3BB77E"/>
<path d="M58.7429 34.3771L49.2254 22.1862C48.5843 21.3629 47.6123 20.8906 46.5589 20.8906C45.8153 20.8906 45.1114 21.1267 44.5207 21.5749L38.292 26.3229C37.579 26.8663 37.1235 27.6549 37.0094 28.5433C36.9923 28.6757 36.9843 28.8077 36.9829 28.9391C34.6083 28.7592 32.1557 28.9401 29.7739 30.4882L29.6671 30.5576L23.6418 29.6361C23.6541 29.4275 23.6475 29.2164 23.6199 29.0045C23.5051 28.1182 23.0504 27.3315 22.3388 26.789L16.1085 22.0452C14.6488 20.9289 12.5383 21.2001 11.4033 22.6513L9.1344 25.558C8.73732 26.0665 8.82789 26.8005 9.33642 27.1974C9.84497 27.5944 10.579 27.5038 10.976 26.9954L13.2441 24.0897C13.5875 23.6506 14.2493 23.5642 14.6913 23.9024L20.923 28.6472C21.1341 28.8081 21.2691 29.0416 21.3032 29.305C21.3373 29.5688 21.2661 29.8299 21.1035 30.0387L11.5841 42.2315C11.2431 42.6695 10.5804 42.7551 10.1391 42.4204L3.91009 37.6719C3.69789 37.5102 3.56226 37.2758 3.52831 37.012C3.49461 36.7495 3.56585 36.4902 3.72974 36.2808L5.34812 34.2075C5.74507 33.699 5.65461 32.965 5.146 32.5682C4.63751 32.171 3.90349 32.2617 3.50642 32.7702L1.88898 34.8423C1.33797 35.5467 1.09727 36.4229 1.21125 37.3097C1.32534 38.198 1.78102 38.9865 2.49384 39.5298L8.7248 44.28C9.3312 44.7399 10.0479 44.9625 10.7598 44.9624C11.1716 44.9624 11.5813 44.8867 11.9676 44.7408L12.774 45.8452C12.3357 46.6448 12.2673 47.6053 12.6196 48.5322C13.1231 49.8576 14.3112 50.7561 15.5966 50.7989C15.6364 50.9877 15.6916 51.1764 15.7671 51.3633C16.2852 52.647 17.4682 53.5208 18.7395 53.5783C18.7453 53.6116 18.7497 53.6451 18.7565 53.6785C18.9984 54.8539 19.9001 55.8577 21.0537 56.2359C21.3475 56.3322 21.6438 56.3817 21.9372 56.3904C22.0496 56.8636 22.2844 57.3207 22.6455 57.722C23.2083 58.3476 24.03 58.7479 24.9314 58.7477C25.586 58.7477 26.2827 58.5353 26.9523 58.0458L28.275 59.2822C28.9487 59.9109 29.7969 60.2248 30.6369 60.2248C31.4889 60.2247 32.3324 59.9018 32.9765 59.257C33.3606 58.8726 33.6582 58.4152 33.8507 57.9337C34.1789 58.0335 34.4996 58.0807 34.8072 58.0807C35.6735 58.0806 36.438 57.7148 36.9857 57.1506C37.4339 56.689 37.7547 56.0745 37.8966 55.4195C37.944 55.4219 37.9914 55.4239 38.039 55.4243C38.0507 55.4245 38.0621 55.4245 38.0738 55.4245C38.9952 55.4245 39.8792 55.0676 40.5035 54.4424C40.9409 54.0045 41.2418 53.4656 41.3854 52.8771C41.6083 52.9206 41.8321 52.9433 42.0554 52.9433C42.3365 52.9433 42.617 52.9084 42.8932 52.8376C44.0196 52.549 44.8894 51.6687 45.1631 50.5401C45.4157 49.4988 45.1555 48.4018 44.447 47.4047C46.2814 45.9288 47.0235 45.2018 47.8615 43.8423C48.4339 44.2635 49.1307 44.4954 49.8672 44.4954C50.6129 44.4954 51.3182 44.2576 51.9045 43.8093L58.1373 39.0637C58.8483 38.5217 59.3031 37.7351 59.418 36.8487C59.5329 35.9614 59.2935 35.084 58.7429 34.3771ZM16.2076 48.2232C16.0287 48.3849 15.8552 48.4669 15.6918 48.4669C15.3563 48.4669 14.9662 48.1313 14.8034 47.7027C14.6555 47.3133 14.7244 46.9881 15.0089 46.7355L15.0127 46.7322L15.0162 46.7291L18.9514 43.2313C19.2807 42.9393 19.6119 42.7849 19.9097 42.7849C20.3455 42.7849 20.6713 43.1157 20.7896 43.4235C20.9161 43.752 20.84 44.0452 20.5647 44.2941L19.8788 44.9127L19.877 44.9144C19.8735 44.9173 19.8704 44.9203 19.8669 44.9233C19.8424 44.9456 19.8171 44.9685 19.792 44.9911L16.2076 48.2232ZM19.3885 51.0151C19.2111 51.1718 19.0421 51.2477 18.8721 51.2477C18.5175 51.2477 18.1053 50.9145 17.9336 50.4888C17.7442 50.0199 17.9689 49.8034 18.0399 49.7349C18.0855 49.6911 18.1403 49.6386 18.1974 49.5775L18.1984 49.5765L18.2105 49.5659C18.4352 49.3652 20.4139 47.5773 21.3593 46.7231L21.4298 46.6596C21.7502 46.3784 22.0747 46.2297 22.3688 46.2297C22.8326 46.2297 23.1778 46.5847 23.3024 46.9143C23.4262 47.2421 23.3519 47.529 23.0825 47.7663L22.8402 47.9793C22.8384 47.981 22.8366 47.9823 22.8349 47.9839L22.8332 47.9856L19.3885 51.0151ZM22.8701 53.5363C22.854 53.5508 22.8388 53.5659 22.8232 53.5807L22.5491 53.828C22.3055 54.0481 22.0616 54.1081 21.7813 54.0161C21.4269 53.8999 21.1175 53.5599 21.045 53.2078C20.9819 52.9017 21.1045 52.6179 21.4156 52.3437L21.8054 52.0031C21.8152 51.9945 21.8237 51.9851 21.8332 51.9763L24.3863 49.731C24.9981 49.1901 25.6041 49.136 26.0073 49.5868C26.0641 49.6503 26.545 50.2221 25.9579 50.7525L24.3899 52.1673C24.3731 52.1822 24.3561 52.1955 24.3394 52.2106C24.3335 52.2161 24.3286 52.2224 24.3228 52.2277L22.888 53.5223C22.8823 53.5273 22.8758 53.5311 22.8701 53.5363ZM24.3824 56.1594C24.2593 56.0228 24.0218 55.6684 24.4113 55.2943L25.9755 53.8829C26.0939 53.7817 26.208 53.7014 26.3148 53.6463C26.3196 53.6437 26.3247 53.6411 26.3295 53.6386C26.96 53.3019 27.3016 53.6944 27.3915 53.8227C27.507 53.9876 27.6478 54.3116 27.2937 54.6297L26.2221 55.5929C26.218 55.5965 26.2141 55.6002 26.2101 55.6038L25.7455 56.0213C24.982 56.7066 24.5091 56.3005 24.3824 56.1594ZM42.8927 49.9895C42.8209 50.2854 42.6098 50.4987 42.3134 50.5747C41.822 50.7004 41.2 50.4276 40.6305 49.8433C40.5879 49.7961 40.5441 49.7495 40.4983 49.7044L36.0891 45.3459C35.6301 44.8926 34.8906 44.8968 34.4372 45.3556C33.9837 45.8144 33.9879 46.554 34.4466 47.0074L38.8487 51.3588C38.8561 51.3666 38.8635 51.3742 38.8707 51.382C39.0466 51.5629 39.1444 51.8045 39.1455 52.0661C39.1466 52.3424 39.0418 52.5999 38.8505 52.7915C38.6618 52.9806 38.3795 53.0884 38.0745 53.0884C38.0702 53.0884 38.066 53.0884 38.0617 53.0883C37.7916 53.0858 37.5451 52.9953 37.3716 52.8374C37.2985 52.7429 37.2189 52.6513 37.1314 52.5634L33.9081 49.3361C33.4521 48.8799 32.7125 48.8793 32.2561 49.3351C31.7997 49.7909 31.7992 50.5305 32.255 50.9869L35.3119 54.0476C35.3487 54.1015 35.3896 54.1534 35.4366 54.202L35.5667 54.3362C35.7343 54.6553 35.6304 55.1929 35.3096 55.5235C34.8145 56.0333 34.1177 55.5838 33.6213 55.1176L32.2409 53.8181C31.7712 53.3759 31.0318 53.3983 30.5897 53.8679C30.1475 54.3377 30.1698 55.077 30.6395 55.5192L31.694 56.5118C31.6966 56.5142 31.6987 56.5168 31.7013 56.5191C31.7253 56.5417 31.7616 56.5757 31.7634 56.6935C31.7679 56.9673 31.5872 57.3426 31.3239 57.6062C30.9395 57.9908 30.3005 57.9771 29.8697 57.575L28.7138 56.4945L28.855 56.3674C30.0013 55.3382 30.1863 53.7408 29.3049 52.4826C29.0181 52.0731 28.6589 51.7551 28.256 51.5343C28.824 50.4141 28.6652 49.054 27.7484 48.0293C27.2313 47.4511 26.5007 47.0562 25.6852 46.9688C25.6619 46.6757 25.5978 46.3803 25.4878 46.0892C25.0911 45.0386 24.209 44.2653 23.1709 43.9975C23.2141 43.5321 23.1498 43.0516 22.9701 42.5842C22.4784 41.307 21.2487 40.4487 19.9098 40.4487C19.0318 40.4487 18.1645 40.8065 17.4005 41.4842L14.4182 44.1351L13.7626 43.2373L22.6545 31.8484L26.7198 32.4702L26.1048 32.8692C22.8105 35.0065 22.5694 37.4921 23.4423 39.1058C24.1409 40.3974 25.5351 41.1357 27.0151 41.1357C27.6243 41.1356 28.2484 41.0104 28.8441 40.7472C28.8599 40.7401 28.8755 40.7329 28.8909 40.7253L31.9706 39.1983L33.7484 40.8171C33.7502 40.8186 33.752 40.8198 33.7536 40.8213C33.7553 40.8229 33.7568 40.8245 33.7585 40.8261L41.9757 48.1341C42.6798 48.7602 43.0227 49.4538 42.8927 49.9895ZM42.7945 45.7361L35.3161 39.0851L32.9531 36.9337C32.5973 36.6095 32.0789 36.5368 31.6479 36.7508L27.8782 38.6199C26.8541 39.0604 25.8467 38.6413 25.4969 37.9946C25.0162 37.106 25.7362 35.8929 27.3761 34.8291L31.0462 32.4476C33.0362 31.154 35.1237 31.0542 37.9792 31.3856L46.2477 41.9802C45.3752 43.5471 44.9118 44.0445 42.7945 45.7361ZM57.1011 36.5483C57.0671 36.8114 56.932 37.0449 56.7214 37.2054L50.4873 41.952C50.2634 42.1233 50.0266 42.1593 49.8675 42.1593C49.5398 42.1592 49.2389 42.0149 49.043 41.7643L39.527 29.5713C39.3638 29.3627 39.2926 29.1034 39.3264 28.841C39.3603 28.5771 39.4958 28.3425 39.7082 28.1808L45.935 23.4341C46.1609 23.2629 46.3988 23.2269 46.5587 23.2269C46.8867 23.2269 47.1868 23.3706 47.383 23.6225L56.9006 35.8135C57.0641 36.0237 57.1354 36.2845 57.1011 36.5483Z" fill="#3BB77E"/>
<path d="M23.4621 24.6492C25.2961 25.6388 27.3677 26.1618 29.4531 26.1618C36.4054 26.1618 42.0617 20.4993 42.0617 13.5391C42.0617 8.68147 39.2258 4.20185 34.8378 2.12698C33.1474 1.32602 31.3358 0.919922 29.4531 0.919922C22.5024 0.919922 16.8477 6.58089 16.8477 13.5391C16.8477 18.18 19.3815 22.4368 23.4621 24.6492ZM29.4531 3.25599C30.987 3.25599 32.4621 3.58645 33.8383 4.23834C37.4145 5.92935 39.7255 9.58024 39.7255 13.5391C39.7255 19.2113 35.1173 23.8258 29.4532 23.8258C27.7538 23.8258 26.0658 23.3995 24.5737 22.5945C21.2491 20.7918 19.1838 17.322 19.1838 13.5391C19.1838 7.86904 23.7905 3.25599 29.4531 3.25599Z" fill="#3BB77E"/>
<path d="M6.51375 30.794C6.72884 30.9656 6.9861 31.0491 7.24161 31.0491C7.58471 31.0491 7.92467 30.8985 8.15529 30.6094L8.16849 30.5929C8.57089 30.0887 8.48829 29.3537 7.98409 28.9514C7.47988 28.5492 6.74482 28.6314 6.34255 29.1358L6.32934 29.1525C5.92695 29.6566 6.00953 30.3915 6.51375 30.794Z" fill="#3BB77E"/>
</g>
</g>
</g>
</g>
<defs>
<clipPath id="clip0_6511_1817">
<rect width="60" height="60" fill="white" transform="translate(0.5 0.919922)"/>
</clipPath>
<clipPath id="clip1_6511_1817">
<rect width="60" height="60" fill="white" transform="translate(0.5 0.919922)"/>
</clipPath>
<clipPath id="clip2_6511_1817">
<rect width="60" height="60" fill="white" transform="translate(0.5 0.919922)"/>
</clipPath>
</defs>
</svg>

<svg xmlns="http://www.w3.org/2000/svg" width="61" height="61" fill="none"><g clip-path="url(#a)"><g clip-path="url(#b)"><g clip-path="url(#c)"><mask id="d" width="60" height="61" x="0" y="0" maskUnits="userSpaceOnUse" style="mask-type:luminance"><path fill="#fff" d="M59.97.92H.663v59.305H59.97z"/></mask><g mask="url(#d)"><path fill="#FDC040" d="m38.645 29.206 3-4.715 4.285-2.142c.572-.143 1.8-.343 2.143 0 .343.342 5.286 7 7.714 10.285l2.143 3.857c-.428.858-1.371 2.657-1.714 3s-3.572 1.858-5.143 2.572c-.857.143-2.657.428-3 .428s-4.428-5.428-6.428-8.142l-2.25-3.858z"/><path fill="#FDC040" d="M48.07 42.491c-.343 0-4.428-5.428-6.428-8.143l-2.25-3.857h-5.893c-.429 0-2.572.857-3.429 1.286L27.5 33.063c-.857.428-1.714 1.285-2.143 1.714-.429.428-1.286 1.714-1.286 2.143s0 1.285.429 1.714c.428.429 1.286.857 1.714.857h2.572c.685 0 2.571-.857 3.428-1.285.286.142.943.514 1.286.857s3.286 2.428 4.714 3.428l3.429 3.429c.571.285 1.8.771 2.143.428s1.571-1.285 2.143-1.714l1.285-.857zM13.785 47.206c0 .685 1.143 2 1.714 2.571l3 2.572 1.715 1.285 1.714 1.715c.572.285 1.714.943 1.714 1.285 0 .343 1.715.715 2.572.858.428-.286 1.371-.943 1.714-1.286.429-.429.429-.429.429-1.286s0-1.714-.429-2.571-.429-2.572-.857-3c-.429-.429-2.143-1.286-2.143-1.715 0-.428-1.286-2.142-1.714-2.571-.429-.429-1.286-2.143-1.715-2.572-.428-.428-1.714-1.285-2.571-.857-.857.429-3.429 2.572-3.857 3-.343.343-1 1.858-1.286 2.572M21.928 5.206c2.57 3.571 9.942 10.542 18.857 9.857l-1.715 5.143-2.571 2.142-8.143 2.572-6.429-2.143-3.857-6.857.429-5.572 2.143-3.857z"/><path fill="#3BB77E" d="M29.357 16.327c-.453 0-1.007-.066-1.387-.49-.132-.149-.248-.287-.36-.403-.905-.953-2.464.37-1.52 1.607l.228.294q.224.277.8.645.559.358 1.251.512v1.634c0 .562.46 1.025 1.02 1.025.566 0 1.044-.463 1.044-1.025v-1.643a3.7 3.7 0 0 0 1.893-1.078q.783-.819.783-2.173 0-.921-.357-1.54-.357-.617-.875-.86a8 8 0 0 0-1.15-.427 9 9 0 0 0-1.146-.261 2.1 2.1 0 0 1-.875-.311q-.357-.238-.357-.619c0-1.217 1.784-1.068 2.57-.407 1.16.976 2.457-.81 1.113-1.818l-.155-.14a3.4 3.4 0 0 0-.558-.313 4 4 0 0 0-.886-.295V6.823c0-.562-.459-1.025-1.023-1.025a1.03 1.03 0 0 0-1.024 1.025v1.402c-.753.149-1.378.523-1.81 1.075a3 3 0 0 0-.657 1.878q0 1.045.485 1.723t1.183.955a10 10 0 0 0 1.387.443c.465.113.858.235 1.182.378q.486.207.485.588 0 1.062-1.284 1.062"/><path fill="#3BB77E" d="m58.743 34.377-9.518-12.19a3.36 3.36 0 0 0-2.666-1.296c-.744 0-1.448.236-2.038.684l-6.229 4.748a3.3 3.3 0 0 0-1.31 2.616c-2.374-.18-4.826.001-7.208 1.55l-.107.069-6.025-.922q.019-.314-.022-.631a3.3 3.3 0 0 0-1.281-2.216l-6.23-4.744a3.384 3.384 0 0 0-4.706.606l-2.269 2.907a1.168 1.168 0 1 0 1.842 1.437l2.268-2.905a1.053 1.053 0 0 1 1.447-.188l6.232 4.745a.98.98 0 0 1 .38.658.98.98 0 0 1-.2.734L11.585 42.23a1.055 1.055 0 0 1-1.445.19L3.91 37.67a.98.98 0 0 1-.18-1.39l1.618-2.073a1.168 1.168 0 1 0-1.842-1.438L1.89 34.842a3.3 3.3 0 0 0-.678 2.468 3.3 3.3 0 0 0 1.283 2.22l6.23 4.75c.607.46 1.324.682 2.036.682.412 0 .821-.075 1.208-.221l.806 1.104c-.438.8-.507 1.76-.154 2.687.503 1.326 1.691 2.224 2.977 2.267q.059.284.17.564c.518 1.284 1.701 2.158 2.973 2.215q.007.05.017.1c.241 1.176 1.143 2.18 2.297 2.558q.442.143.883.154c.113.474.347.93.708 1.332a3.08 3.08 0 0 0 2.286 1.026c.655 0 1.352-.213 2.021-.702l1.323 1.236a3.46 3.46 0 0 0 2.362.943 3.3 3.3 0 0 0 2.34-.968c.384-.384.681-.842.874-1.323q.494.148.956.147c.866 0 1.631-.366 2.179-.93a3.6 3.6 0 0 0 .91-1.732 3 3 0 0 0 .178.006c.921 0 1.805-.357 2.43-.983.437-.437.738-.976.881-1.565q.335.066.67.066.423 0 .838-.105a3.13 3.13 0 0 0 2.27-2.298c.253-1.041-.007-2.138-.716-3.135 1.834-1.476 2.576-2.203 3.414-3.563a3.37 3.37 0 0 0 2.006.653c.746 0 1.451-.237 2.038-.686l6.232-4.745a3.3 3.3 0 0 0 1.281-2.215 3.3 3.3 0 0 0-.675-2.472M16.208 48.223q-.27.244-.516.244c-.336 0-.726-.336-.889-.764q-.222-.587.206-.968l.004-.003.003-.003 3.935-3.498c.33-.292.66-.446.959-.446.436 0 .761.33.88.639.126.328.05.621-.225.87l-.686.619-.002.001-.01.01-.075.067zm3.18 2.792c-.177.157-.346.233-.516.233-.355 0-.767-.334-.938-.76-.19-.468.035-.685.106-.753q.07-.066.157-.157l.001-.002.012-.01c.225-.2 2.204-1.989 3.15-2.843l.07-.063c.32-.282.645-.43.939-.43.464 0 .809.355.933.684.124.328.05.615-.22.852l-.242.213-.005.005-.002.002zm3.482 2.521-.047.045-.274.247c-.244.22-.487.28-.768.188-.354-.116-.663-.456-.736-.808-.063-.306.06-.59.37-.864l.39-.34.028-.028 2.553-2.245c.612-.54 1.218-.595 1.621-.144.057.063.538.635-.05 1.165l-1.567 1.415-.05.044-.017.017-1.435 1.294zm1.512 2.623c-.123-.136-.36-.49.03-.865l1.564-1.411q.178-.153.339-.237l.014-.007c.631-.337.973.055 1.063.184.115.165.256.489-.098.807l-1.072.963-.012.01-.465.418c-.763.686-1.236.28-1.363.138m18.51-6.17a.78.78 0 0 1-.579.586c-.491.125-1.113-.147-1.683-.732a3 3 0 0 0-.132-.139l-4.409-4.358a1.168 1.168 0 0 0-1.642 1.661l4.402 4.352.022.023c.176.18.273.422.274.684.002.276-.103.534-.295.725-.188.19-.47.297-.776.297h-.012a1.04 1.04 0 0 1-.69-.25 3 3 0 0 0-.24-.275l-3.224-3.227a1.168 1.168 0 0 0-1.653 1.65l3.057 3.062q.055.08.125.154l.13.134c.167.32.063.857-.257 1.188-.495.51-1.192.06-1.689-.406l-1.38-1.3a1.168 1.168 0 0 0-1.601 1.701l1.054.993.007.007c.024.023.06.057.062.175.005.273-.176.649-.44.912-.384.385-1.023.371-1.453-.031l-1.156-1.08.141-.128c1.146-1.029 1.331-2.626.45-3.884a3.1 3.1 0 0 0-1.049-.949c.568-1.12.41-2.48-.508-3.505a3.24 3.24 0 0 0-2.063-1.06 3.2 3.2 0 0 0-.197-.88 3.4 3.4 0 0 0-2.317-2.091 3.1 3.1 0 0 0-.2-1.414c-.493-1.277-1.722-2.135-3.061-2.135-.878 0-1.745.358-2.51 1.035l-2.982 2.651-.655-.898 8.891-11.389 4.066.622-.615.4c-3.294 2.137-3.536 4.622-2.663 6.236.699 1.291 2.093 2.03 3.573 2.03a4.5 4.5 0 0 0 1.876-.41l3.08-1.528 1.777 1.62.006.003.005.005 8.217 7.308c.704.626 1.047 1.32.917 1.855m-.098-4.253-7.478-6.65-2.363-2.152a1.17 1.17 0 0 0-1.305-.183l-3.77 1.869c-1.024.44-2.031.021-2.381-.625-.48-.889.24-2.102 1.88-3.166l3.67-2.381c1.99-1.294 4.077-1.394 6.932-1.062l8.269 10.594c-.873 1.567-1.336 2.065-3.453 3.756m14.307-9.188a.98.98 0 0 1-.38.657l-6.234 4.747c-.224.171-.46.207-.62.207-.327 0-.628-.144-.824-.395l-9.516-12.193a.981.981 0 0 1 .181-1.39l6.227-4.747c.226-.171.464-.207.624-.207.328 0 .628.144.824.395l9.518 12.191c.163.21.234.471.2.735"/><path fill="#3BB77E" d="M23.462 24.65a12.66 12.66 0 0 0 5.991 1.512c6.952 0 12.609-5.663 12.609-12.623 0-4.858-2.836-9.337-7.224-11.412A12.5 12.5 0 0 0 29.453.92c-6.95 0-12.605 5.66-12.605 12.62 0 4.64 2.534 8.897 6.614 11.11m5.991-21.394c1.534 0 3.01.33 4.385.982a10.33 10.33 0 0 1 5.887 9.301c0 5.672-4.608 10.287-10.272 10.287-1.7 0-3.387-.427-4.88-1.232a10.29 10.29 0 0 1-5.39-9.055c0-5.67 4.608-10.283 10.27-10.283M6.514 30.794a1.166 1.166 0 0 0 1.642-.185l.012-.016a1.168 1.168 0 1 0-1.825-1.457l-.014.017a1.17 1.17 0 0 0 .185 1.641"/></g></g></g></g><defs><clipPath id="a"><path fill="#fff" d="M.5.92h60v60H.5z"/></clipPath><clipPath id="b"><path fill="#fff" d="M.5.92h60v60H.5z"/></clipPath><clipPath id="c"><path fill="#fff" d="M.5.92h60v60H.5z"/></clipPath></defs></svg>
